assets/images/cooperations/interone.svg

<svg viewBox="0 0 255.23 84.05" xmlns="http://www.w3.org/2000/svg"><g fill="#1d1d1b"><path d="m23.88 18.72h8.5v8.15h-8.5zm0 12.34h8.5v30.65h-8.5z"/><path d="m37.22 31.06h8.27v3.84h.12a10.81 10.81 0 0 1 9-4.49c6.17 0 10.39 3.78 10.39 10.87v20.43h-8.47v-17.83c0-3.84-1.59-6.38-5.2-6.38-3.42 0-5.61 2.24-5.61 7v17.21h-8.5z"/><path d="m71.17 54.15v-16.47h-4v-6.44h4v-9h8.44v9h6.56v6.44h-6.56v14.41a2.45 2.45 0 0 0 2.78 2.77 19.88 19.88 0 0 0 3.72-.29v6.9a25.45 25.45 0 0 1 -6 .77c-4.75 0-8.94-2.12-8.94-8.09z"/><path d="m88.2 49.9v-5.85c0-9 6.91-13.58 14.53-13.58 6.79 0 13.41 4 13.41 12.23v6h-19.2v1.42c0 3.72 3.25 5.61 6.73 5.61a10.82 10.82 0 0 0 7.33-3.41l4.66 4.37c-2.83 4-7.62 5.73-12.75 5.73-7.62 0-14.71-3.9-14.71-12.52zm19.67-6.61v-.95a4.91 4.91 0 0 0 -5.26-5.25c-2.83 0-5.67 1.65-5.67 5.61v.59z"/><path d="m119.85 31.06h8.27v5.08h.11a12 12 0 0 1 9.63-5.61 13.82 13.82 0 0 1 2.72.18v7.5a24.07 24.07 0 0 0 -3.43-.24c-4.72 0-8.86 2.42-8.86 7.92v15.82h-8.44z"/><path d="m140.88 50.26v-6.8c0-8.62 7.21-13 14.18-13 7.38 0 14.46 4.43 14.46 12.82v6.32c0 8.62-7.38 12.81-14.23 12.81-7.38.01-14.41-3.77-14.41-12.15zm20 0v-7.62c0-3.31-2.48-5.38-5.79-5.38-2.89 0-5.61 1.66-5.61 5.55v7.56c0 3.31 2.37 5.32 5.79 5.32 2.92 0 5.63-1.69 5.63-5.43z"/><path d="m173.34 31.06h8.27v3.84h.12a10.81 10.81 0 0 1 9-4.49c6.14 0 10.34 3.78 10.34 10.87v20.43h-8.45v-17.83c0-3.84-1.59-6.38-5.19-6.38-3.43 0-5.61 2.24-5.61 7v17.21h-8.51z"/><path d="m204.87 49.9v-5.85c0-9 6.91-13.58 14.53-13.58 6.79 0 13.4 4 13.4 12.23v6h-19.19v1.42c0 3.72 3.25 5.61 6.73 5.61a10.82 10.82 0 0 0 7.33-3.37l4.66 4.37c-2.83 4-7.62 5.73-12.75 5.73-7.58-.04-14.71-3.94-14.71-12.56zm19.67-6.61v-.95a4.91 4.91 0 0 0 -5.26-5.25c-2.83 0-5.67 1.65-5.67 5.61v.59z"/><path d="m255.23 84.05h-255.23v-84.05h255.23zm-249.56-5.67h243.89v-72.71h-243.89z"/></g></svg>

<svg xmlns="http://www.w3.org/2000/svg" viewBox="0 0 255.23 84.05"><defs><style>.cls-1{fill:#1d1d1b;}</style></defs><title>logo_new</title><g id="Layer_2" data-name="Layer 2"><g id="Ebene_1" data-name="Ebene 1"><path class="cls-1" d="M23.88,18.72h8.5v8.15h-8.5Zm0,12.34h8.5V61.71h-8.5Z"/><path class="cls-1" d="M37.22,31.06h8.27V34.9h.12a10.81,10.81,0,0,1,9-4.49C60.78,30.41,65,34.19,65,41.28V61.71H56.53V43.88c0-3.84-1.59-6.38-5.2-6.38-3.42,0-5.61,2.24-5.61,7V61.71h-8.5Z"/><path class="cls-1" d="M71.17,54.15V37.68h-4V31.24h4v-9h8.44v9h6.56v6.44H79.61V52.09a2.45,2.45,0,0,0,2.78,2.77,19.88,19.88,0,0,0,3.72-.29v6.9a25.45,25.45,0,0,1-6,.77C75.36,62.24,71.17,60.12,71.17,54.15Z"/><path class="cls-1" d="M88.2,49.9V44.05c0-9,6.91-13.58,14.53-13.58,6.79,0,13.41,4,13.41,12.23v6H96.94v1.42c0,3.72,3.25,5.61,6.73,5.61A10.82,10.82,0,0,0,111,52.32l4.66,4.37c-2.83,4-7.62,5.73-12.75,5.73C95.29,62.42,88.2,58.52,88.2,49.9Zm19.67-6.61v-.95a4.91,4.91,0,0,0-5.26-5.25c-2.83,0-5.67,1.65-5.67,5.61v.59Z"/><path class="cls-1" d="M119.85,31.06h8.27v5.08h.11a12,12,0,0,1,9.63-5.61,13.82,13.82,0,0,1,2.72.18v7.5a24.07,24.07,0,0,0-3.43-.24c-4.72,0-8.86,2.42-8.86,7.92V61.71h-8.44Z"/><path class="cls-1" d="M140.88,50.26v-6.8c0-8.62,7.21-13,14.18-13,7.38,0,14.46,4.43,14.46,12.82v6.32c0,8.62-7.38,12.81-14.23,12.81C147.91,62.42,140.88,58.64,140.88,50.26Zm20,0V42.64c0-3.31-2.48-5.38-5.79-5.38-2.89,0-5.61,1.66-5.61,5.55v7.56c0,3.31,2.37,5.32,5.79,5.32C158.19,55.69,160.9,54,160.9,50.26Z"/><path class="cls-1" d="M173.34,31.06h8.27V34.9h.12a10.81,10.81,0,0,1,9-4.49c6.14,0,10.34,3.78,10.34,10.87V61.71h-8.45V43.88c0-3.84-1.59-6.38-5.19-6.38-3.43,0-5.61,2.24-5.61,7V61.71h-8.51Z"/><path class="cls-1" d="M204.87,49.9V44.05c0-9,6.91-13.58,14.53-13.58,6.79,0,13.4,4,13.4,12.23v6H213.61v1.42c0,3.72,3.25,5.61,6.73,5.61a10.82,10.82,0,0,0,7.33-3.37l4.66,4.37c-2.83,4-7.62,5.73-12.75,5.73C212,62.42,204.87,58.52,204.87,49.9Zm19.67-6.61v-.95a4.91,4.91,0,0,0-5.26-5.25c-2.83,0-5.67,1.65-5.67,5.61v.59Z"/><path class="cls-1" d="M255.23,84.05H0V0H255.23ZM5.67,78.38H249.56V5.67H5.67Z"/></g></g></svg>
